svg/fluentui-system-icons/ic_fluent_mail_arrow_down_16_regular.svg

<svg width="16" height="16" viewBox="0 0 16 16" fill="none" xmlns="http://www.w3.org/2000/svg">
<path d="M15 5.5C15 7.98528 12.9853 10 10.5 10C8.01472 10 6 7.98528 6 5.5C6 3.01472 8.01472 1 10.5 1C12.9853 1 15 3.01472 15 5.5ZM10.146 7.85316L10.1486 7.85567C10.196 7.90256 10.2505 7.93802 10.3086 7.96206C10.3667 7.98615 10.4303 7.9996 10.497 7.99999L10.5 8L10.503 7.99999C10.5697 7.9996 10.6333 7.98615 10.6914 7.96206C10.7504 7.93766 10.8056 7.90149 10.8536 7.85355L12.8536 5.85355C13.0488 5.65829 13.0488 5.34171 12.8536 5.14645C12.6583 4.95118 12.3417 4.95118 12.1464 5.14645L11 6.29289V3.5C11 3.22386 10.7761 3 10.5 3C10.2239 3 10 3.22386 10 3.5V6.29289L8.85355 5.14645C8.65829 4.95118 8.34171 4.95118 8.14645 5.14645C7.95118 5.34171 7.95118 5.65829 8.14645 5.85355L10.146 7.85316ZM12 13V10.793C12.3486 10.6944 12.6832 10.5622 13 10.4003V13C13 14.1046 12.1046 15 11 15H3C1.89543 15 1 14.1046 1 13V7C1 5.89543 1.89543 5 3 5H5.02242C5.00758 5.16468 5 5.33146 5 5.5C5 5.66854 5.00758 5.83532 5.02242 6H3C2.44772 6 2 6.44772 2 7V7.73976L7.0001 10.4321L7.54428 10.1391C7.88809 10.3586 8.25794 10.541 8.64816 10.6805L7.23715 11.4402C7.08916 11.5199 6.91104 11.5199 6.76305 11.4402L2 8.87552V13C2 13.5523 2.44772 14 3 14H11C11.5523 14 12 13.5523 12 13Z" fill="#212121"/>
</svg>

<svg xmlns="http://www.w3.org/2000/svg" width="16" height="16"><path d="M15 5.5a4.5 4.5 0 1 1-9 0 4.5 4.5 0 0 1 9 0Zm-4.854 2.353.003.003a.498.498 0 0 0 .348.144h.006a.498.498 0 0 0 .35-.146l2-2a.5.5 0 0 0-.707-.708L11 6.293V3.5a.5.5 0 0 0-1 0v2.793L8.854 5.146a.5.5 0 1 0-.708.708l2 2ZM12 13v-2.207c.349-.099.683-.23 1-.393V13a2 2 0 0 1-2 2H3a2 2 0 0 1-2-2V7a2 2 0 0 1 2-2h2.022a5.57 5.57 0 0 0 0 1H3a1 1 0 0 0-1 1v.74l5 2.692.544-.293c.344.22.714.402 1.104.542l-1.41.76a.5.5 0 0 1-.475 0L2 8.875V13a1 1 0 0 0 1 1h8a1 1 0 0 0 1-1Z"/></svg>
